X:1
T:Yukon, 10.10.12.10
T:Yukon, 10.10.12.10
T:William Fiske Sherwin, 1881
T:Public Domain Courtesy of the Cyber Hymnal™
C:William Fiske Sherwin, 1881
Z:Public Domain
Z:Courtesy of the Cyber Hymnal™
%%score ( 1 2 ) ( 3 4 )
L:1/8
Q:1/4=110
M:2/2
K:D
V:1 treble 
V:2 treble 
V:3 bass 
V:4 bass 
V:1
 [FA]4 [GB]2 [FA]2 | [^E^G]2 [FA]2 [DF]4 | [CE]4 [CA]2 [EG]2 | [DF]6 z2 | [FA]4 [GB]2 [FA]2 | %5
 [^E^G]2 [FA]2 [DF]4 | [CE]4 [EA]2 [D^G]2 | [CA]6 z2 | [Ec]4 [GB]2 [GA]2 | [Fd]2 [GB]2 [FA]4 | %10
 [EG]4 [^DF]2 [EG]2 | [GB]2 [FA]2 [DF]4 | [FA]4 [CG]2 [DF]2 | [DB]2 [Gc]2 ([Fd]2 [GB]2) | %14
 [FA]4 [EG]2 [CE]2 | D6 z2 |] %16
V:2
 x8 | x8 | x8 | x8 | x8 | x8 | x8 | x8 | x8 | x8 | x8 | x8 | x8 | x8 | x8 | D6 x2 |] %16
V:3
 [D,A,]4 [D,G,]2 [D,A,]2 | [D,B,]2 [D,A,]2 [D,A,]4 | [A,,A,]4 [A,,E,]2 [A,,A,]2 | [D,A,]6 z2 | %4
 [D,D]4 [D,D]2 [D,D]2 | [D,B,]2 [D,A,]2 [D,A,]4 | [E,A,]4 [E,C]2 [E,B,]2 | [A,,A,]6 z2 | %8
 A,4 [A,C]2 [A,E]2 | [D,D]2 [D,D]2 [D,D]4 | [A,,C]4 [A,,C]2 [A,,C]2 | [D,D]2 [D,D]2 [D,A,]4 | %12
 [D,A,]4 [E,A,]2 [F,A,]2 | G,2 [E,A,]2 ([D,A,]2 [G,,D]2) | [A,,D]4 [A,,A,]2 [A,,G,]2 | %15
 [D,F,]6 z2 |] %16
V:4
 x8 | x8 | x8 | x8 | x8 | x8 | x8 | x8 | A,4 x4 | x8 | x8 | x8 | x8 | G,2 x6 | x8 | x8 |] %16

